X: 33772
T: Ravelled Hank Of Yarn, The
R: reel
M: 4/4
K: Gmajor
||B2 Bd A3 B|GB~B2 GABc|dA~A2 d2 eg|fdcA AG~G2|
B2 Bd A3 B|GB~B2 GABc|dAAA d2 eg|fdcA AGG2||
dG ~G2 d2ef|g2 ga bgeg|dG~G2 d2 eg|fdcA AG~G2|
dG~G2 d2ef|g2ga bgef|g2 ga bgag|fdcA AG G2||

